symbols/web/medication_liquid/materialsymbolsrounded/medication_liquid_gradN25fill1_24px.svg

<svg xmlns="http://www.w3.org/2000/svg" height="24" width="24"><path d="M4.125 5.075q-.375 0-.65-.275T3.2 4.125q0-.375.275-.65t.65-.275h9.625q.4 0 .675.275t.275.65q0 .4-.275.675t-.675.275Zm4.825 12.35q.6 0 1.013-.412.412-.413.412-1.013v-1.075h1.075q.575 0 1-.413.425-.412.425-1.012 0-.6-.425-1.025-.425-.425-1-.425h-1.075V11q0-.6-.425-1.025-.425-.425-1.025-.425-.575 0-1 .425Q7.5 10.4 7.5 11v1.05H6.45q-.6 0-1.025.425Q5 12.9 5 13.5q0 .6.425 1.012.425.413 1.025.413H7.5V16q0 .6.425 1.013.425.412 1.025.412ZM4.075 20.8q-.775 0-1.325-.55-.55-.55-.55-1.325V8.075q0-.775.55-1.325.55-.55 1.325-.55h9.75q.75 0 1.313.55.562.55.562 1.325v10.85q0 .775-.562 1.325-.563.55-1.313.55ZM20 20.8q-.375 0-.65-.275t-.275-.675v-6q-.875-.425-1.438-1.412-.562-.988-.562-2.313 0-1.675.85-2.8Q18.775 6.2 20 6.2q1.25 0 2.1 1.125.85 1.125.85 2.8 0 1.325-.562 2.313-.563.987-1.438 1.412v6q0 .4-.275.675T20 20.8Z"/></svg>

<svg xmlns="http://www.w3.org/2000/svg" height="24" width="24"><path d="M4.125 5.075Q3.75 5.075 3.475 4.8Q3.2 4.525 3.2 4.125Q3.2 3.75 3.475 3.475Q3.75 3.2 4.125 3.2H13.75Q14.15 3.2 14.425 3.475Q14.7 3.75 14.7 4.125Q14.7 4.525 14.425 4.8Q14.15 5.075 13.75 5.075ZM8.95 17.425Q9.55 17.425 9.963 17.013Q10.375 16.6 10.375 16V14.925H11.45Q12.025 14.925 12.45 14.512Q12.875 14.1 12.875 13.5Q12.875 12.9 12.45 12.475Q12.025 12.05 11.45 12.05H10.375V11Q10.375 10.4 9.95 9.975Q9.525 9.55 8.925 9.55Q8.35 9.55 7.925 9.975Q7.5 10.4 7.5 11V12.05H6.45Q5.85 12.05 5.425 12.475Q5 12.9 5 13.5Q5 14.1 5.425 14.512Q5.85 14.925 6.45 14.925H7.5V16Q7.5 16.6 7.925 17.013Q8.35 17.425 8.95 17.425ZM4.075 20.8Q3.3 20.8 2.75 20.25Q2.2 19.7 2.2 18.925V8.075Q2.2 7.3 2.75 6.75Q3.3 6.2 4.075 6.2H13.825Q14.575 6.2 15.138 6.75Q15.7 7.3 15.7 8.075V18.925Q15.7 19.7 15.138 20.25Q14.575 20.8 13.825 20.8ZM20 20.8Q19.625 20.8 19.35 20.525Q19.075 20.25 19.075 19.85V13.85Q18.2 13.425 17.637 12.438Q17.075 11.45 17.075 10.125Q17.075 8.45 17.925 7.325Q18.775 6.2 20 6.2Q21.25 6.2 22.1 7.325Q22.95 8.45 22.95 10.125Q22.95 11.45 22.388 12.438Q21.825 13.425 20.95 13.85V19.85Q20.95 20.25 20.675 20.525Q20.4 20.8 20 20.8Z"/></svg>
